X:1
T:The Pipers Cave  "CYMRU"
M:C|
L:1/8
Q:80
C:P/M J. Sutherland
S:March
K:HP
|: {gcd}c3/4B/4 | \
{g}A2{GAG}A3/2B/2 | \
{GdG}cf{e}fa/2f/2 |
{gef}ec{gcd}c{g}B/2{d}A/2 | \
{gcd}c{g}B{GdGe}B{gcd}c3/4B/4 | | \
{g}A2{GAG}A3/2B/2 |
{GdG}cf{e}fa/2f/2 | \
{gef}e3/2c/2{g}B{gcd}c/2B/2 | \
{g}A2{GAG}A ::
{gf}g | \
{ag}af{gfg}fe/2f/2 | \
{ag}ac{GdG}ca/2f/2 |
{gef}ec{gcd}c{g}B/2{d}A/2 | \
{gcd}c{g}B{GdGe}B|1 {gf}g|1  | \
{ag}af{gfg}fe/2f/2 |
{ag}ac{GdG}ca/2f/2 | \
{gef}e3/2c/2{g}B{gcd}c/2B/2 | \
{g}A2{GAG}A:|2
{gcd}c3/4B/4 | \
{g}A2{GAG}A3/2B/2 | \
{GdG}cf{e}fa/2f/2 |
{gef}e3/2c/2{g}B{gcd}c/2B/2 | \
{g}A2{GAG}A|]
